rospo-newyear-light/symbolic/emotes/emote-love-symbolic.svg

<svg height="16" width="16" xmlns="http://www.w3.org/2000/svg"><path d="m4.78 2c-2.08 0-3.78 1.67-3.78 3.75 0 1.08.46 2.06 1.19 2.75l5.72 5.5 5.9-5.5c.73-.69 1.19-1.67 1.19-2.75 0-2.08-1.7-3.75-3.78-3.75-1.37 0-2.56.72-3.22 1.81-.66-1.09-1.85-1.81-3.22-1.81z" fill="#5c616c"/></svg>

<svg xmlns="http://www.w3.org/2000/svg" width="16" height="16" version="1.1">
 <path style="fill:#5c616c" d="M 4.78,2 C 2.7,2 1,3.67 1,5.75 1,6.83 1.46,7.81 2.19,8.5 L 7.91,14 13.81,8.5 C 14.54,7.81 15,6.83 15,5.75 15,3.67 13.3,2 11.22,2 9.85,2 8.66,2.72 8,3.81 7.34,2.72 6.15,2 4.78,2 Z"/>
</svg>
